X:1
T:Title
%%score { 1 | 2 }
L:1/8
M:2/4
K:G
V:1 treble nm="Grand Piano"
V:2 bass 
V:1
 z2 z[Q:1/4=76] D | B>A GE | ED D2 | F [FA]3 | G B2 D | B>A GE | ED DG |[M:3/8] FG[FA] | %8
[M:1/8] [GB] |[M:3/8] [FA]3 |[M:1/8] D |[M:2/4] B>A GE | ED D2 | F [FA]3 | G B2 D | B>A GE | %16
 ED DG |[M:3/8] FG[FA] |[M:1/8] [FB] |[M:3/8] G3 |[M:2/4] B d3 | [Ec] [Ge]3 | [GB][Bd] [Bd][GB] | %23
 [GB][FA] [FA]2 | [GB] [Gd]3 | [Ec] [Ge]3 | [Gd][GB] [FA]>[FA] |[M:3/8] G3 |] %28
V:2
 z2 z [G,B,] | [G,D]>[G,CD] [G,B,D][G,C] | [G,C][G,B,] [G,B,]2 | [D,A,D] [D,C]3 | %4
 [G,B,D] [G,DG]2 [G,B,] | [G,D]>[G,CD][K:bass] [G,B,D][G,C] | [G,C][G,B,] [G,B,][G,B,D] | %7
[M:3/8] [D,A,D][D,B,D][D,D] |[M:1/8] [D,D] |[M:3/8] [D,D]3 |[M:1/8] [G,B,] | %11
[M:2/4] [G,D]>[G,CD] [G,B,D][G,C] | [G,C][G,B,] [G,B,]2 | [D,A,D] [D,C]3 | [G,B,D] [G,DG]2 [G,B,] | %15
 [G,D]>[G,CD][K:bass] [G,B,D][G,C] | [G,C][G,B,] [G,B,][G,B,D] |[M:3/8] [D,A,D][D,B,D][D,D] | %18
[M:1/8] [D,C] |[M:3/8] [G,B,]3 |[M:2/4][K:treble] [G,DG] [G,B,G]3 | [C,C] [C,C]3 | %22
 [G,D][G,D] [G,D][G,D] | [D,D][D,D] [D,D]2 | [G,D] [G,B,]3 | [C,C] [C,C]3 | %26
 [D,B,][D,D] [D,D]>[D,C] |[M:3/8] [G,B,]3 |] %28

